X: 4362
T: Bolger's
R: hornpipe
M: 4/4
K: Gmajor
(3def|g2 fe d2 BA|GFGA BG D2|DGFG DGFG|BdcB A2 (3def|
g2 fe d2 BA|GFGA BG D2|DGFG Agfe|1 dcBA G2:|2 dcBA Gd^cd||
|:BDGB dgfg|eGcd egfe|d^cde d=ccB|BAAG Ad^cd|
BDGB dgfg|eGcd egfe|dgfe (3ded (3cBA|G2B2G2:|

